!!!id: 18xx:1698
!!!COM: Moniuszko, Stanisław
!!!OTL: Tułaczka
!!!PDT:
!!!SMS-siglum: PL-Wtm
!!!SMS-shelfmark: R 730/18/M
!!!NIFC-rismID: 1001099821
!!!URL-scan: http://repozytorium.nifc.pl/skany/pl-wtm-nut--r730m-1-43
!!!ONB-nifc: Skan 0022, No. 770
!!!SMS-variant:
!!!SMS-altvar:
**kern	**kern	**kern	**text
*part2	*part2	*part1	*part1
*staff3	*staff2	*staff1	*staff1
*I"[Fortepian]	*	*I"[Głos]	*
*I'pf	*	*I'V	*
*clefF4	*clefG2	*clefG2	*
*k[f#]	*k[f#]	*k[f#]	*
*M3/8	*M3/8	*M3/8	*
*>[A,B,A]	*>[A,B,A]	*>[A,B,A]	*
=1	=1	=1	=1
*>A	*>A	*>A	*
!!LO:TX:t=P:problem:all\right:global
!	!LO:TX:t=P:problem:ligatury przy powtórce al Fine	!LO:TX:a:i:t=Andantino simplice.-	!
8c\ 8e	16.g\LL 16.gg	4.r	.
.	32g\JJk 32gg	.	.
8r	[4g\ [4gg	.	.
8GG/	.	.	.
=2	=2	=2	=2
8B\ 8d	16.g\LL] 16.gg]	4.r	.
.	32g\JJk 32gg	.	.
8r	4g\ 4gg	.	.
8GG/	.	.	.
=3	=3	=3	=3
*	*^	*	*
!	!	!	!LO:TX:a:i:t=„Tułaczka._	!
8c\ 8e	16.g\LL 16.gg	4ryy	4.ryy	.
.	32g\JJk 32gg	.	.	.
8r	8g\ 8gg	.	.	.
8G\ 8c 8e-X	8aa/	8f#X\ 8a	.	.
*	*v	*v	*	*
=4	=4	=4	=4
4G;<\ 4B 4d	4g;\ 4b 4bb	4.ryy	.
8r	8r	.	.
!	!LO:TX:a:i:t=Fine.	!LO:TX:a:i:t=Fine.	!
=5||	=5||	=5||	=5||
*>B	*>B	*>B	*
4.GG^/ 4.D	((4B/ 4d	16b\	„Do-
.	.	16b\	kąd-
.	.	8b\	-że
.	8g/)) 8b	8b\	to
=6	=6	=6	=6
4.GG^/ 4.D	((4B/ 4d	16b\	z_ran-
.	.	16b\	-ną
.	.	8b\	gwia-
.	8g/)) 8b	8b\	-zdą
=7	=7	=7	=7
4GG/ 4D	((4B/ 4d	16cc\	Jas-
.	.	16b\	-kó-
.	.	8a#X/	-łecz-
8GG/ 8D	8g/)) 8b	8b/	-ka
=8	=8	=8	=8
4GG/ 4D	((4B/ 4d	8.cc\	smu-
.	.	16b\	-tna
8GG/ 8D	8g/)) 8b	16a#X/	le-
.	.	16b/	-ci?
!!LO:LB:g=original
=9	=9	=9	=9
4.GG/ 4.D	8r	16ee\	czy
.	.	16ee\	zły
.	8B/L 8d 8g	8.dd\	czło-
.	8B/J 8d 8g	.	.
.	.	16g/	-wiek
=10	=10	=10	=10
4.AA/ 4.D	8r	16f#/	zep-
.	.	16g/	-suł
.	8c/L 8f#	8a/	gniaz-
.	8c/J 8f#	8a/	-do
=11	=11	=11	=11
4.DD/ 4.D	8r	16ee\	czy
.	.	16dd\	ci
.	8c/L 8f# 8a	8cc\	ja-
.	8c/J 8f# 8a	16b/LL	-strząb
.	.	16a/JJ	.
=12	=12	=12	=12
!LO:TX:t=P:problem:mixed beam	!	!	!
8GG/L	8r	16g/	za-
.	.	16a/	-bił
8G\	8B/L 8g	8b\	dzie-
8G#X\J	8d/J 8fn 8b	8b\	-ci?
=13	=13	=13	=13
4A\	8r	16cc\	czy
.	.	16b\	zły
.	8c/L 8e 8cc	16a/LL	czło-
.	.	32b/L	.
.	.	32a/JJJ	.
8D#X\	8c/J 8f# 8a	16g/	.
.	.	16f#/	-wiek
=14	=14	=14	=14
4E\	8r	16e/	ze-
.	.	16f#/	-psuł
.	8B/L 8d 8g	8g/	gnia-
8C#X/	8e/J 8g 8a	8a/	-zdo
=15	=15	=15	=15
4D\	8d/L 8g 8b	16b/	czy
.	.	16b/	ci
!	!	!LO:TX:a:i:t=ritard	!
.	8dd/J	16b/	jas-
.	.	16d/	-trząb
8D\ 8A	(<8c/L (<8f#	16.b/	za-
.	.	32a/	-bił
=16	=16	=16	=16
.	.	8qa/	.
!LO:TX:t=P:problem:mixed beam	!	!	!
8G\L	8B/J) 8g)	8g/	dzie-
!	!	!LO:N:vis=4	!
8GG/J	8r	8g/	-ci?”
8r	8g\ 8gg	8r	.
!!LO:PB:g=original
=|	=|	=|	=|
*-	*-	*-	*-
!!!system-decoration: s1{(s2,s3)}
!!!RDF**kern: < = below
!!!RDF**kern: > = abov
!!!ENC: Andrzej Gręziak
!!!END: 2021-03-31
!!!ENC: Marta Chmielewska
!!!END: 2021-04-19
